Numix/64/mimetypes/audio-x-gtp.svg

<?xml version="1.0" encoding="UTF-8" standalone="no"?>
<svg
   xmlns:dc="http://purl.org/dc/elements/1.1/"
   xmlns:cc="http://creativecommons.org/ns#"
   xmlns:rdf="http://www.w3.org/1999/02/22-rdf-syntax-ns#"
   xmlns:svg="http://www.w3.org/2000/svg"
   xmlns="http://www.w3.org/2000/svg"
   xmlns:sodipodi="http://sodipodi.sourceforge.net/DTD/sodipodi-0.dtd"
   xmlns:inkscape="http://www.inkscape.org/namespaces/inkscape"
   viewBox="0 0 64 64"
   version="1.1"
   id="svg16"
   sodipodi:docname="audio-x-gtp.svg"
   inkscape:version="0.92.4 5da689c313, 2019-01-14">
  <metadata
     id="metadata22">
    <rdf:RDF>
      <cc:Work
         rdf:about="">
        <dc:format>image/svg+xml</dc:format>
        <dc:type
           rdf:resource="http://purl.org/dc/dcmitype/StillImage" />
        <dc:title></dc:title>
      </cc:Work>
    </rdf:RDF>
  </metadata>
  <defs
     id="defs20" />
  <sodipodi:namedview
     pagecolor="#ffffff"
     bordercolor="#666666"
     borderopacity="1"
     objecttolerance="10"
     gridtolerance="10"
     guidetolerance="10"
     inkscape:pageopacity="0"
     inkscape:pageshadow="2"
     inkscape:window-width="958"
     inkscape:window-height="1016"
     id="namedview18"
     showgrid="false"
     showguides="true"
     inkscape:guide-bbox="true"
     inkscape:zoom="2.6074563"
     inkscape:cx="-17.560047"
     inkscape:cy="125.65467"
     inkscape:window-x="960"
     inkscape:window-y="33"
     inkscape:window-maximized="0"
     inkscape:current-layer="g14">
    <sodipodi:guide
       position="32,48.40678"
       orientation="1,0"
       id="guide36"
       inkscape:locked="false" />
  </sodipodi:namedview>
  <g
     id="g14">
    <path
       d="m 10.672 0 c -1.375 0 -2.672 1.355 -2.672 2.789 l 0 58.42 c 0 1.355 1.375 2.789 2.672 2.789 l 42.656 0 c 1.297 0 2.672 -1.434 2.672 -2.789 l 0 -43.21 l -18 -18 m -27.328 0"
       style="fill:#a31d23;fill-opacity:1;stroke:none;fill-rule:nonzero"
       id="path2" />
    <path
       d="m 42 18 l 14 14 l 0 -14 m -14 0"
       style="fill:#000;fill-opacity:0.196;stroke:none;fill-rule:nonzero"
       id="path4" />
    <path
       d="m 38 0 l 17.984 18 l -15.227 0 c -1.348 0 -2.758 -1.426 -2.758 -2.773 m 0 -15.227"
       style="fill:#fff;fill-opacity:0.392;stroke:none;fill-rule:nonzero"
       id="path6" />
    <path
       inkscape:connector-curvature="0"
       d="M 42,26.416666 C 42,33.75 34.727272,42 32,42 29.272727,42 22,33.424033 22,26.416666 22,22.19065 25.394091,20 32,20 c 6.605908,0 10,2.214024 10,6.416666 z"
       style="fill:#f9f9f9;stroke-width:0.91287088;paint-order:normal"
       id="path21" />
    <path
       inkscape:connector-curvature="0"
       d="m 8.0002837,48.037234 v 13.336 c 0,1.297 1.375,2.664 2.6639993,2.664 h 42.672001 c 1.289,0 2.664,-1.367 2.664,-2.664 v -13.336 m -48.0000003,0"
       style="fill:#000000;fill-opacity:0.19599998;fill-rule:nonzero;stroke:none"
       id="path4-1" />
    <path
       inkscape:connector-curvature="0"
       d="m 21.873739,51.825134 c -0.60313,0 -1.109217,0.08855 -1.528696,0.268605 -0.408,0.184973 -0.75026,0.441771 -1.022608,0.76449 -0.265044,0.318784 -0.45287,0.707424 -0.583305,1.157066 -0.109565,0.441771 -0.158608,0.933721 -0.158608,1.483721 0,1.252505 0.236869,2.191145 0.717913,2.794276 0.485217,0.588372 1.186435,0.883542 2.123478,0.883542 0.14713,0 0.318261,-0.0079 0.497739,-0.02263 0.179478,-0.0079 0.342261,-0.02656 0.493565,-0.05018 v -3.847048 h 2.527305 v 5.265832 c -0.297392,0.08855 -0.774261,0.19186 -1.413913,0.30796 C 22.895304,60.94195 22.124174,61 21.219478,61 20.416,61 19.69913,60.884884 19.05113,60.650716 18.419826,60.420483 17.881391,60.07415 17.428522,59.620572 16.975652,59.155188 16.625043,58.582558 16.374609,57.898748 16.126261,57.207066 16,56.407156 16,55.5 c 0,-0.895349 0.14713,-1.683453 0.436174,-2.367263 0.289043,-0.691682 0.680348,-1.272182 1.169739,-1.733631 0.493565,-0.465385 1.084174,-0.810734 1.757217,-1.038015 C 20.032,50.119052 20.757217,50 21.52313,50 c 0.49774,0 0.933913,0.03837 1.31687,0.103309 0.399652,0.05805 0.741913,0.130859 1.03513,0.199732 0.289044,0.08068 0.517566,0.169231 0.697044,0.261717 C 24.76,50.653309 24.906087,50.722182 25,50.772361 l -0.656348,1.667711 c -0.301565,-0.16136 -0.668869,-0.307961 -1.112348,-0.427013 -0.432,-0.130859 -0.884869,-0.187925 -1.357565,-0.187925"
       style="fill:#ffffff;fill-opacity:1;fill-rule:nonzero;stroke:none;stroke-width:1.0132513"
       id="path12" />
    <path
       id="path872"
       style="fill:#ffffff;fill-opacity:1;fill-rule:nonzero;stroke:none;stroke-width:1.01879811"
       d="m 37,50 v 1.807838 H 33.734587 V 61 H 31.257053 V 51.807838 H 28 V 50 h 9"
       inkscape:connector-curvature="0" />
    <path
       id="path956"
       style="fill:#ffffff;fill-opacity:1;fill-rule:nonzero;stroke:none;stroke-width:1.02843404"
       d="m 42.850526,50 c 1.312873,0 2.339301,0.290313 3.061381,0.864559 C 46.634982,51.429235 47,52.351219 47,53.639018 c 0,1.296307 -0.365018,2.24275 -1.103012,2.824439 -0.730037,0.573182 -1.756465,0.864559 -3.100171,0.864559 H 42.058824 V 61 H 40 V 50.270109 c 0.201904,-0.04147 0.427678,-0.08295 0.676329,-0.12442 0.256606,-0.03296 0.513213,-0.05849 0.768826,-0.067 0.256607,-0.02446 0.505257,-0.04147 0.753907,-0.04998 0.240694,-0.01701 0.458511,-0.02446 0.652458,-0.02446 m 0.232737,1.88544 c -0.124325,0 -0.295397,0 -0.520176,0.01701 -0.209861,0 -0.380932,0.0085 -0.505257,0.03296 v 3.514598 h 0.839443 c 0.660414,0 1.157715,-0.141435 1.491901,-0.407289 0.334186,-0.282869 0.4973,-0.756091 0.4973,-1.420728 0,-0.631669 -0.163114,-1.080432 -0.4973,-1.33778 -0.326229,-0.265855 -0.761865,-0.398782 -1.305911,-0.398782"
       inkscape:connector-curvature="0" />
  </g>
</svg>

<svg version="1.1" viewBox="0 0 64 64" xmlns="http://www.w3.org/2000/svg">
 <path d="m10.672 0c-1.375 0-2.672 1.355-2.672 2.789v58.42c0 1.355 1.375 2.789 2.672 2.789h42.656c1.297 0 2.672-1.434 2.672-2.789v-43.21l-18-18" style="fill:#a31d23"/>
 <path d="m42 18 14 14v-14" style="fill-opacity:.196"/>
 <path d="m38 0 17.984 18h-15.227c-1.348 0-2.758-1.426-2.758-2.773" style="fill-opacity:.392;fill:#fff"/>
 <path d="m42 26.417c0 7.3333-7.2727 15.583-10 15.583-2.7273 0-10-8.576-10-15.583 0-4.226 3.3941-6.4167 10-6.4167 6.6059 0 10 2.214 10 6.4167z" style="fill:#f9f9f9;paint-order:normal;stroke-width:.91287"/>
 <path d="m8.0003 48.037v13.336c0 1.297 1.375 2.664 2.664 2.664h42.672c1.289 0 2.664-1.367 2.664-2.664v-13.336" style="fill-opacity:.196"/>
 <path d="m21.874 51.825c-0.60313 0-1.1092 0.08855-1.5287 0.2686-0.408 0.18497-0.75026 0.44177-1.0226 0.76449-0.26504 0.31878-0.45287 0.70742-0.5833 1.1571-0.10956 0.44177-0.15861 0.93372-0.15861 1.4837 0 1.2525 0.23687 2.1911 0.71791 2.7943 0.48522 0.58837 1.1864 0.88354 2.1235 0.88354 0.14713 0 0.31826-0.0079 0.49774-0.02263 0.17948-0.0079 0.34226-0.02656 0.49356-0.05018v-3.847h2.5273v5.2658c-0.29739 0.08855-0.77426 0.19186-1.4139 0.30796-0.6313 0.11118-1.4024 0.16923-2.3071 0.16923-0.80348 0-1.5203-0.11512-2.1683-0.34928-0.6313-0.23023-1.1697-0.57657-1.6226-1.0301-0.45287-0.46538-0.80348-1.038-1.0539-1.7218-0.24835-0.69168-0.37461-1.4916-0.37461-2.3987 0-0.89535 0.14713-1.6835 0.43617-2.3673 0.28904-0.69168 0.68035-1.2722 1.1697-1.7336 0.49356-0.46538 1.0842-0.81073 1.7572-1.038 0.66887-0.24204 1.3941-0.36109 2.16-0.36109 0.49774 0 0.93391 0.03837 1.3169 0.10331 0.39965 0.05805 0.74191 0.13086 1.0351 0.19973 0.28904 0.08068 0.51757 0.16923 0.69704 0.26172 0.18783 0.088551 0.33391 0.15742 0.42783 0.2076l-0.65635 1.6677c-0.30156-0.16136-0.66887-0.30796-1.1123-0.42701-0.432-0.13086-0.88487-0.18792-1.3576-0.18792" style="fill:#fff"/>
 <path d="m37 50v1.8078h-3.2654v9.1922h-2.4775v-9.1922h-3.2571v-1.8078h9" style="fill:#fff"/>
 <path d="m42.851 50c1.3129 0 2.3393 0.29031 3.0614 0.86456 0.72308 0.56468 1.0881 1.4867 1.0881 2.7745 0 1.2963-0.36502 2.2428-1.103 2.8244-0.73004 0.57318-1.7565 0.86456-3.1002 0.86456h-0.73799v3.672h-2.0588v-10.73c0.2019-0.04147 0.42768-0.08295 0.67633-0.12442 0.25661-0.03296 0.51321-0.05849 0.76883-0.067 0.25661-0.02446 0.50526-0.04147 0.75391-0.04998 0.24069-0.01701 0.45851-0.02446 0.65246-0.02446m0.23274 1.8854c-0.12432 0-0.2954 0-0.52018 0.01701-0.20986 0-0.38093 0.0085-0.50526 0.03296v3.5146h0.83944c0.66041 0 1.1577-0.14144 1.4919-0.40729 0.33419-0.28287 0.4973-0.75609 0.4973-1.4207 0-0.63167-0.16311-1.0804-0.4973-1.3378-0.32623-0.26586-0.76186-0.39878-1.3059-0.39878" style="fill:#fff"/>
</svg>
